build/assets/images/svg/icons/lk/basket/r-bin.svg

<svg width="16" height="16" viewBox="0 0 16 16" fill="none" xmlns="http://www.w3.org/2000/svg">
<path d="M6.33357 1.16406C6.05646 1.16406 5.80824 1.33548 5.71011 1.59463L5.55704 1.99882C5.22892 1.96603 4.92661 1.93331 4.68188 1.90583C4.49894 1.88529 4.34856 1.86772 4.2441 1.85531L4.1236 1.84085L4.08267 1.83585C3.71728 1.7906 3.38387 2.05007 3.33862 2.41547C3.29337 2.78086 3.5529 3.11376 3.9183 3.15901L3.96283 3.16445L4.08681 3.17934C4.19371 3.19203 4.34696 3.20993 4.53311 3.23084C4.90508 3.2726 5.40995 3.32652 5.93964 3.37486C6.65416 3.44007 7.43738 3.4974 8.00023 3.4974C8.56308 3.4974 9.3463 3.44007 10.0608 3.37486C10.5905 3.32652 11.0954 3.2726 11.4674 3.23084C11.6535 3.20993 11.8068 3.19203 11.9136 3.17934L12.0376 3.16445L12.0821 3.15902C12.4475 3.11377 12.7071 2.78086 12.6618 2.41547C12.6166 2.05007 12.2837 1.79054 11.9183 1.83578L11.8769 1.84085L11.7564 1.85531C11.6519 1.86772 11.5015 1.88529 11.3186 1.90583C11.0739 1.93331 10.7715 1.96603 10.4434 1.99882L10.2904 1.59463C10.1922 1.33548 9.94401 1.16406 9.6669 1.16406H6.33357Z" fill="#F10B34"/>
<path d="M7.33357 7.83073C7.33357 7.46254 7.03509 7.16406 6.6669 7.16406C6.29871 7.16406 6.00023 7.46254 6.00023 7.83073V11.1641C6.00023 11.5323 6.29871 11.8307 6.6669 11.8307C7.03509 11.8307 7.33357 11.5323 7.33357 11.1641V7.83073Z" fill="#F10B34"/>
<path d="M9.33357 7.16406C9.70176 7.16406 10.0002 7.46254 10.0002 7.83073V11.1641C10.0002 11.5323 9.70176 11.8307 9.33357 11.8307C8.96537 11.8307 8.6669 11.5323 8.6669 11.1641V7.83073C8.6669 7.46254 8.96537 7.16406 9.33357 7.16406Z" fill="#F10B34"/>
<path fill-rule="evenodd" clip-rule="evenodd" d="M12.6067 5.36443C12.6671 4.51859 11.9378 3.84048 11.1091 3.93626C10.2611 4.03426 8.95246 4.16406 8.00023 4.16406C7.04801 4.16406 5.73939 4.03426 4.89137 3.93626C4.06262 3.84048 3.33338 4.51859 3.3938 5.36443L3.96495 13.3606C4.00825 13.9668 4.45974 14.4793 5.07933 14.5724C5.74373 14.6723 6.96286 14.8319 8.001 14.8307C9.02639 14.8295 10.2505 14.6706 10.9178 14.5716C11.5385 14.4796 11.9922 13.9667 12.0356 13.3588L12.6067 5.36443ZM11.2622 5.26078C11.2645 5.26051 11.2662 5.26067 11.2662 5.26067L11.268 5.26107C11.2695 5.26158 11.2718 5.2628 11.2741 5.26498C11.2756 5.26642 11.2768 5.26818 11.2768 5.26818L11.2767 5.26944L10.7063 13.2551C10.0459 13.3527 8.91392 13.4963 7.99946 13.4974C7.07509 13.4985 5.95015 13.3546 5.29424 13.2564L4.72374 5.26944L4.72369 5.26818C4.72369 5.26818 4.72483 5.26642 4.72635 5.26498C4.72865 5.2628 4.73097 5.26158 4.73245 5.26107L4.73421 5.26067C4.73421 5.26067 4.73599 5.26051 4.7383 5.26078C5.58782 5.35896 6.96386 5.4974 8.00023 5.4974C9.0366 5.4974 10.4126 5.35896 11.2622 5.26078Z" fill="#F10B34"/>
</svg>

<svg width="16" height="16" fill="none" xmlns="http://www.w3.org/2000/svg"><path d="M6.334 1.164a.667.667 0 00-.624.43L5.557 2a72.756 72.756 0 01-1.313-.144l-.12-.014-.041-.005a.667.667 0 00-.165 1.323l.045.005.124.015a71.928 71.928 0 001.853.196c.714.065 1.497.122 2.06.122s1.346-.057 2.06-.122a69.538 69.538 0 001.854-.196l.124-.015.044-.005a.667.667 0 00-.164-1.323l-.041.005-.12.014A69.792 69.792 0 0110.442 2l-.153-.404a.667.667 0 00-.623-.43H6.334zm1 6.666A.667.667 0 006 7.83v3.334a.667.667 0 001.334 0V7.831zm2-.666c.368 0 .666.299.666.667v3.333a.667.667 0 11-1.333 0V7.831c0-.368.298-.667.667-.667z" fill="#F10B34"/><path fill-rule="evenodd" clip-rule="evenodd" d="M12.607 5.364a1.345 1.345 0 00-1.498-1.428c-.848.098-2.157.228-3.109.228s-2.26-.13-3.109-.228a1.345 1.345 0 00-1.497 1.428l.57 7.997a1.316 1.316 0 001.115 1.211c.665.1 1.884.26 2.922.259 1.025-.002 2.25-.16 2.917-.26a1.316 1.316 0 001.118-1.212l.57-7.995zm-1.345-.103h.006c.002 0 .004.002.006.004a.023.023 0 01.003.003v.001l-.57 7.986c-.661.098-1.793.241-2.708.242-.924.002-2.049-.142-2.705-.24l-.57-7.988s0-.003.002-.004a.018.018 0 01.006-.004h.006c.85.098 2.226.236 3.262.236 1.037 0 2.413-.138 3.262-.236z" fill="#F10B34"/></svg>
